X: 2206
T: WHISKY WELCOME BACK AGAIN
Q: "Strathspey."
R: Strathspey.
%R: strathspey
B: James Kerr "Merry Melodies" v.2 p.23 #206
Z: 2016 John Chambers <jc:trillian.mit.edu>
M: C
L: 1/8
K: Bb
|:\
B,<B vB>ud vc>vBuc>ud | B<cG<B F>D{=B,}C2 |\
B,<B B>d c>Bc>d | vB>vF (G<B) F>DB,2 ::\
vd<ff>ug vf>vduc>uB |
vd<ff>ug vf>vdc2 |\
[1 d<ff>g f>dc>d | vB>vF (G<B) F>DB,2 :|\
[2 d<fc<d B>cd>c | B>F (G<B) F>D B,2 |]

